X: 1
T:Anthony Murray
R:strathspey
C:traditional
O:Cape Breton
N:Tune books, related recordings
N:..... Cranford Publications <http://www.cranfordpub.com>
D:Jerry Holland, Crystal Clear
B: The Dungreen Collection
Z:This abc transcription is for personal use only,
Z:provided this notice remains attached.
Z:Paul Stewart Cranford <psc@cranfordpub.com>
Q:288
L:1/8
M:C
K:A
E<AA>G F>EA>G|F<DE>C B,/B,/B, B,>D|C<EA>E C<EA>E|F<DE>C A,/A,/A, A,>D|!
C<EA>E C<EA>E|F<DE>C B,/B,/B, (3(EFG)|A>BA>G F>EA>G|F<DE>C A,/A,/A, A,|]!
b|e<Ae>A c>BA>a|f<de>c B/B/B (3Beb|e<Ae>A c>BA>a|f<de>c A/A/A A>B,|!
A,2 (3(efg) a>gf>e|f<be>c B>dc>B|F>G (3AAG F<EA>G|F<DE>C A,/A,/A, A,||!
D|(3CEE (3AEE (3CEE (3AEE|F<DE>C B,/B,/B, B,>D|(3CEE (3AEE (3CEE (3AEE|F<DE>C A,/A,/A, A,>D|!
(3CEE (3AEE (3CEE (3AEE|F<DE>C B,/B,/B,  (3(EFG)|A>BA>G F>EA>G|F<DE>C A,/A,/A, A,|]!
b|e<Ae>A c>BA>a|f<de>c B/B/B (3Beb|e<Ae>A c>BA>a|f<de>c A/A/A A>B,|!
A,2 (3(efg) a>gf>e|f<be>c B>dc>B|F>G (3AAG F<EA>G|F<DE>C A,/A,/A, A,|]!
